!!!OTL: ICH STAND AUF HOHEM BERGE
!!!ARE: Europa, Mitteleuropa, Deutschland, Bergisches Land, Langenberg
!!!SCT: E0115A
!!!YEM: Copyright 1995, estate of Helmut Schaffrath.
**kern
*ICvox
*Ivox
*M3/4
*k[f#]
*G:
{4d
=1
4.g
8a
8b
8b
=2
8b
8a
4a}
{8b
8a
=3
4.g
8g
8b
8b
=4
2a}
{8b
8dd
=5
4dd
4b
8b
8dd
=6
4dd
4b}
{8b
8dd
=7
4.cc
8a
8dd
8dd
=8
2b}
==
!!!AGN: erzaehlendes Volks - Lied, Schalk -, Schelmen - Lied, betrogene Liebe     Ballade ?
!!!ONB: ESAC (Essen Associative Code) Database: ERK1
!!!AMT: simple triple
!!!AIN: vox
!!!EED: Helmut Schaffrath
!!!EEV: 1.0
*-
!!!title: @{OTL} [@{SCT}]
